src/public/img/icons/jsdelivr-logo-horizontal.svg

<svg width="140" height="34" viewBox="0 0 140 34" fill="none" xmlns="http://www.w3.org/2000/svg">
<g clip-path="url(#clip0)">
<path d="M43.616 19.576C43.616 23.581 42.227 25.584 39.448 25.584C39.0217 25.5844 38.5973 25.5258 38.187 25.41V24.298C38.642 24.452 39.07 24.53 39.472 24.53C40.537 24.53 41.305 24.126 41.776 23.321C42.247 22.514 42.482 21.258 42.482 19.552V8.69304H43.616V19.576ZM47.065 24.705V23.396C48.253 24.152 49.458 24.531 50.677 24.531C51.973 24.531 52.957 24.263 53.629 23.726C54.3 23.189 54.636 22.438 54.636 21.475C54.636 20.625 54.41 19.947 53.958 19.443C53.507 18.937 52.529 18.249 51.023 17.376C49.341 16.397 48.276 15.577 47.828 14.916C47.381 14.256 47.157 13.494 47.157 12.63C47.157 11.458 47.612 10.461 48.523 9.64204C49.434 8.82504 50.649 8.41504 52.17 8.41504C53.1782 8.41845 54.1791 8.58667 55.133 8.91304V10.117C54.1548 9.67586 53.0931 9.45074 52.02 9.45704C50.893 9.45704 50 9.74404 49.339 10.315C48.68 10.886 48.349 11.612 48.349 12.492C48.349 13.34 48.575 14.016 49.026 14.518C49.478 15.018 50.452 15.702 51.949 16.566C53.5 17.447 54.533 18.229 55.046 18.911C55.56 19.595 55.816 20.38 55.816 21.267C55.816 22.541 55.374 23.578 54.491 24.381C53.607 25.184 52.358 25.585 50.745 25.585C50.173 25.585 49.516 25.495 48.772 25.319C48.027 25.141 47.459 24.936 47.065 24.705ZM59.104 25.295V8.69304H64.985C70.88 8.69304 73.829 11.391 73.829 16.786C73.829 19.371 73.024 21.436 71.416 22.98C69.806 24.523 67.663 25.295 64.985 25.295H59.104ZM62.844 11.739V22.261H64.696C66.317 22.261 67.588 21.776 68.51 20.803C69.432 19.83 69.893 18.507 69.893 16.833C69.893 15.25 69.436 14.006 68.521 13.099C67.607 12.192 66.322 11.739 64.671 11.739H62.844ZM86.841 25.295H76.884V8.69304H86.458V11.739H80.624V15.432H86.054V18.464H80.624V22.26H86.841V25.295ZM99.893 25.295H90.006V8.69304H93.746V22.261H99.893V25.295ZM105.989 8.69304V25.295H102.249V8.69304H105.989ZM123.834 8.69304L118.115 25.295H113.879L108.228 8.69304H112.257L115.719 20.246C115.905 20.871 116.016 21.424 116.055 21.903H116.123C116.19 21.3258 116.311 20.756 116.483 20.201L119.922 8.69304H123.834ZM140 25.295H135.705L133.124 21.022C132.948 20.7269 132.763 20.4374 132.569 20.154C132.409 19.9209 132.228 19.7021 132.03 19.5C131.865 19.3308 131.674 19.1903 131.463 19.084C131.263 18.9868 131.043 18.9372 130.82 18.939H129.814V25.295H126.074V8.69304H132C136.029 8.69304 138.043 10.199 138.043 13.208C138.049 13.7541 137.959 14.297 137.777 14.812C137.599 15.302 137.349 15.744 137.025 16.137C136.691 16.539 136.294 16.8836 135.849 17.157C135.371 17.4504 134.855 17.6759 134.315 17.827V17.874C134.563 17.95 134.801 18.077 135.034 18.249C135.265 18.423 135.489 18.626 135.704 18.859C135.921 19.09 136.128 19.338 136.323 19.605C136.52 19.871 136.7 20.131 136.862 20.387L140 25.295ZM129.815 11.495V16.114H131.435C132.238 16.114 132.883 15.883 133.367 15.42C133.607 15.1974 133.797 14.9265 133.925 14.625C134.053 14.3236 134.116 13.9984 134.109 13.671C134.109 12.221 133.239 11.494 131.504 11.494H129.815V11.495Z" fill="white"/>
<path fill-rule="evenodd" clip-rule="evenodd" d="M28.6542 26.2969L15.3862 33.6619L15.3862 25.5119C17.2316 25.5113 19.0357 24.966 20.5725 23.9443C22.1095 22.9225 23.3106 21.4696 24.0252 19.7679C23.1368 19.5195 22.2749 19.1842 21.4522 18.7669C21.1709 19.0214 20.8126 19.1745 20.4342 19.2019C20.0559 19.2292 19.6792 19.1293 19.3642 18.9179L19.3394 18.9339L19.3392 18.934C19.3086 18.9538 19.2783 18.9734 19.2492 18.9899C18.0569 19.7518 16.7538 20.3244 15.3862 20.6876L15.3862 19.5749C16.5594 19.2315 17.6776 18.7228 18.7072 18.0639C18.6442 17.8836 18.6121 17.6939 18.6122 17.5029C18.6122 17.3309 18.6382 17.1629 18.6862 17.0049C17.4422 16.03 16.3326 14.8948 15.3862 13.6289V12.5402C15.4319 12.5088 15.4748 12.4731 15.5141 12.4336C15.5979 12.3496 15.6643 12.2498 15.7094 12.14C15.7546 12.0302 15.7776 11.9126 15.7772 11.7939C15.776 11.5616 15.6856 11.3387 15.5249 11.1711C15.4825 11.1269 15.436 11.0873 15.3862 11.0529L15.3862 10.1719C15.4342 10.1879 15.4842 10.2049 15.5312 10.2269C16.6009 9.18201 17.802 8.28078 19.1042 7.54586C17.9309 7.03693 16.6652 6.77553 15.3862 6.77791C15.3862 6.77791 15.3862 6.77791 15.3862 6.77791V0.337891L31.1372 5.80689L28.6542 26.2969ZM24.3842 18.7529C24.6232 17.9249 24.7522 17.0499 24.7522 16.1429C24.7522 15.2479 24.6252 14.3789 24.3912 13.5579C23.7159 14.7706 22.8748 15.8833 21.8922 16.8639C22.0182 17.1727 22.0502 17.5119 21.9842 17.8389C22.7514 18.2235 23.5555 18.5297 24.3842 18.7529ZM23.8812 12.1959C23.8171 12.3359 23.7501 12.4746 23.6802 12.6119C23.0329 13.8777 22.1941 15.036 21.1932 16.0459C20.906 15.8729 20.574 15.7887 20.239 15.8036C19.9041 15.8185 19.581 15.932 19.3102 16.1299C18.7876 15.7175 18.2901 15.2744 17.8202 14.8029C17.2238 14.209 16.6733 13.5708 16.1732 12.8939C16.4025 12.6249 16.542 12.2909 16.5721 11.9388C16.6022 11.5866 16.5215 11.2339 16.3412 10.9299C17.4988 9.80832 18.8194 8.86835 20.2582 8.14186C21.8383 9.10745 23.0986 10.5176 23.8812 12.1959ZM20.9817 18.1525C21.1432 17.9758 21.228 17.7421 21.2172 17.5029C21.2164 17.3091 21.1537 17.1206 21.0382 16.965C20.9227 16.8094 20.7605 16.6948 20.5752 16.6379C20.4403 16.5978 20.298 16.5897 20.1594 16.6142C20.0209 16.6387 19.8899 16.6951 19.7769 16.7789C19.6639 16.8627 19.5719 16.9716 19.5083 17.0971C19.4447 17.2226 19.4111 17.3612 19.4102 17.5019L19.4112 17.5389C19.4168 17.5444 19.4232 17.5489 19.4296 17.5533L19.4368 17.5584L19.4412 17.5619C19.4384 17.5643 19.4351 17.5667 19.4315 17.5693C19.426 17.5733 19.4198 17.5779 19.4132 17.5839C19.424 17.8231 19.5293 18.0482 19.7061 18.2098C19.8828 18.3714 20.1165 18.4561 20.3557 18.4454C20.595 18.4346 20.8201 18.3293 20.9817 18.1525Z" fill="white"/>
<path fill-rule="evenodd" clip-rule="evenodd" d="M0 5.87989L15.386 0.337891L15.386 6.77791C14.778 6.77791 14.185 6.83291 13.613 6.94591C13.638 7.14291 13.673 7.34991 13.714 7.55191C13.882 8.41191 14.163 9.27691 14.543 10.1269C14.8233 10.0705 15.1133 10.086 15.386 10.1719L15.386 11.0529C15.2474 10.9571 15.0837 10.901 14.913 10.8929H14.875C14.6455 10.8876 14.4227 10.9701 14.2519 11.1234C14.0811 11.2767 13.9751 11.4893 13.9556 11.718C13.9361 11.9467 14.0045 12.1742 14.1469 12.3542C14.2893 12.5343 14.495 12.6532 14.722 12.6869L14.7263 12.6877L14.7303 12.6884L14.7303 12.6884C14.7361 12.6893 14.7415 12.6902 14.747 12.6929C14.788 12.6969 14.831 12.6989 14.875 12.6989C14.9937 12.6989 15.1112 12.6755 15.2209 12.6299C15.279 12.6058 15.3344 12.5757 15.386 12.5402L15.386 13.6289C15.3717 13.6101 15.3572 13.5918 15.3429 13.5736L15.3429 13.5736L15.3428 13.5736L15.3428 13.5735C15.3122 13.5348 15.2819 13.4964 15.254 13.4549C14.9154 13.5315 14.5615 13.5036 14.239 13.3749C13.105 14.9809 12.327 16.7159 11.989 18.4239C11.957 18.5859 11.93 18.7439 11.906 18.8989C12.383 19.0939 12.754 19.4949 12.902 19.9909C12.918 19.9869 12.931 19.9869 12.948 19.9869C13.757 19.9479 14.575 19.8069 15.386 19.5749L15.386 20.6876C15.3857 20.6877 15.3853 20.6878 15.385 20.6879C14.6051 20.8918 13.8062 21.015 13.001 21.0549L12.873 21.0629C12.722 21.4729 12.419 21.8069 12.034 22.0029C12.279 22.9119 12.722 23.7009 13.353 24.3299C13.877 24.8539 14.515 25.2499 15.244 25.5099L15.385 25.5119L15.386 25.5119L15.386 33.6619L2.186 26.3719L0 5.87989ZM8.65401 22.6569C9.743 23.7844 11.0978 24.6203 12.594 25.0879C11.802 24.2989 11.256 23.3099 10.969 22.1529C10.6055 22.087 10.2732 21.9047 10.0225 21.6333C9.77173 21.362 9.61607 21.0165 9.57901 20.6489C9.547 20.6389 9.514 20.6279 9.48201 20.6159C9.47753 20.6143 9.4727 20.6133 9.46783 20.6123C9.46074 20.6109 9.45352 20.6094 9.447 20.6059C9.265 20.5459 9.082 20.4809 8.905 20.4109C8.30689 20.1677 7.738 19.8581 7.209 19.4879C6.931 19.2879 6.664 19.0739 6.413 18.8409C6.84302 20.273 7.61052 21.581 8.651 22.6549L8.65401 22.6569ZM7.209 19.4879L7.21187 19.494C7.21462 19.4996 7.21783 19.5062 7.22 19.5149C7.21811 19.508 7.21543 19.5022 7.21296 19.4969C7.2115 19.4938 7.21012 19.4909 7.209 19.4879ZM13.174 11.7939C13.174 12.1179 13.262 12.4209 13.417 12.6769C12.167 14.4299 11.309 16.3329 10.938 18.2159C10.897 18.4249 10.861 18.6319 10.833 18.8349C10.404 18.9479 10.043 19.2279 9.81701 19.5969C9.80467 19.5967 9.7926 19.5932 9.782 19.5869C9.76753 19.5831 9.75542 19.5785 9.74321 19.5739C9.73603 19.5712 9.72876 19.5685 9.721 19.5659C8.66881 19.2184 7.71167 18.6313 6.925 17.8509C6.81767 17.7437 6.71395 17.633 6.614 17.5189L6.573 17.4699L6.458 17.3329L6.411 17.2739L6.40901 17.2713C6.39604 17.2546 6.38638 17.2422 6.374 17.2289C6.37115 17.2232 6.36732 17.2188 6.36381 17.2147C6.36117 17.2117 6.35872 17.2089 6.357 17.2059C6.34246 17.1899 6.3295 17.1723 6.31736 17.1558L6.31733 17.1558L6.31732 17.1558L6.304 17.1379C6.29704 17.1274 6.28931 17.1185 6.28347 17.1118L6.281 17.1089L6.277 17.1009C6.26956 17.0929 6.26276 17.0832 6.25587 17.0734C6.25075 17.0661 6.24555 17.0587 6.24 17.0519C6.18507 16.9787 6.1327 16.9037 6.083 16.8269L6.07925 16.8219C6.07133 16.8115 6.06318 16.8008 6.058 16.7879C6.05032 16.7797 6.04361 16.7706 6.038 16.7609C5.87409 14.3212 6.67369 11.9145 8.26501 10.0579C9.40323 8.72516 10.8927 7.73873 12.564 7.21089C12.59 7.39289 12.623 7.57789 12.659 7.76389C12.851 8.73089 13.172 9.70589 13.608 10.6619C13.337 10.9619 13.174 11.3599 13.174 11.7939ZM12.0967 20.8527C12.1499 20.7353 12.177 20.6078 12.176 20.4789C12.1778 20.3057 12.1273 20.1359 12.031 19.9919C11.9652 19.8885 11.879 19.7996 11.7776 19.7308C11.6762 19.662 11.5618 19.6146 11.4415 19.5917C11.3211 19.5687 11.1973 19.5707 11.0777 19.5974C10.9581 19.6241 10.8452 19.6749 10.746 19.7469C10.6292 19.8299 10.534 19.9397 10.4684 20.067C10.4028 20.1944 10.3687 20.3356 10.369 20.4789C10.3683 20.6156 10.3988 20.7507 10.458 20.8739C10.5341 21.0288 10.6527 21.1589 10.8 21.2489C10.9641 21.3505 11.1565 21.3967 11.3489 21.3804C11.5412 21.3642 11.7232 21.2866 11.868 21.1589C11.9655 21.0746 12.0436 20.9702 12.0967 20.8527Z" fill="white" fill-opacity="0.8"/>
</g>
<defs>
<clipPath id="clip0">
<rect width="140" height="34" fill="white"/>
</clipPath>
</defs>
</svg>

<?xml version="1.0" encoding="utf-8"?>
<svg viewBox="0 0 140 34" width="140" height="34" xmlns="http://www.w3.org/2000/svg">
	<style type="text/css">
		.st0{fill:#FFFFFF;}
		.st1{fill:#BD483B;}
		.st2{fill:#E64E3D;}
		.st3{fill:#FEC82F;}
		.st4{fill:#DF9C26;}
	</style>
	<g>
		<g>
			<g>
				<path class="st0" d="M43.616,19.576c0,4.005-1.389,6.008-4.168,6.008c-0.432,0-0.853-0.059-1.261-0.174v-1.112 c0.455,0.154,0.883,0.232,1.285,0.232c1.065,0,1.833-0.404,2.304-1.209c0.471-0.807,0.706-2.063,0.706-3.769V8.693h1.134V19.576z "/>
				<path class="st0" d="M47.065,24.705v-1.309c1.188,0.756,2.393,1.135,3.612,1.135c1.296,0,2.28-0.268,2.952-0.805 c0.671-0.537,1.007-1.288,1.007-2.251c0-0.85-0.226-1.528-0.678-2.032c-0.451-0.506-1.429-1.194-2.935-2.067 c-1.682-0.979-2.747-1.799-3.195-2.46c-0.447-0.66-0.671-1.422-0.671-2.286c0-1.172,0.455-2.169,1.366-2.988 c0.911-0.817,2.126-1.227,3.647-1.227c0.988,0,1.975,0.166,2.963,0.498v1.204c-0.972-0.44-2.011-0.66-3.113-0.66 c-1.127,0-2.02,0.287-2.681,0.858c-0.659,0.571-0.99,1.297-0.99,2.177c0,0.848,0.226,1.524,0.677,2.026 c0.452,0.5,1.426,1.184,2.923,2.048c1.551,0.881,2.584,1.663,3.097,2.345c0.514,0.684,0.77,1.469,0.77,2.356 c0,1.274-0.442,2.311-1.325,3.114c-0.884,0.803-2.133,1.204-3.746,1.204c-0.572,0-1.229-0.09-1.973-0.266 C48.027,25.141,47.459,24.936,47.065,24.705z"/>
				<path class="st0" d="M59.104,25.295V8.693h5.881c5.895,0,8.844,2.698,8.844,8.093c0,2.585-0.805,4.65-2.413,6.194 c-1.61,1.543-3.753,2.315-6.431,2.315H59.104z M62.844,11.739v10.522h1.852c1.621,0,2.892-0.485,3.814-1.458 c0.922-0.973,1.383-2.296,1.383-3.97c0-1.583-0.457-2.827-1.372-3.734c-0.914-0.907-2.199-1.36-3.85-1.36H62.844z"/>
				<path class="st0" d="M86.841,25.295h-9.957V8.693h9.574v3.046h-5.834v3.693h5.43v3.032h-5.43v3.796h6.217V25.295z"/>
				<path class="st0" d="M99.893,25.295h-9.887V8.693h3.74v13.568h6.147V25.295z"/>
				<path class="st0" d="M105.989,8.693v16.602h-3.74V8.693H105.989z"/>
				<path class="st0" d="M123.834,8.693l-5.719,16.602h-4.236l-5.651-16.602h4.029l3.462,11.553c0.186,0.625,0.297,1.178,0.336,1.657 h0.068c0.055-0.518,0.174-1.084,0.36-1.702l3.439-11.508H123.834z"/>
				<path class="st0" d="M140,25.295h-4.295l-2.581-4.273c-0.193-0.322-0.379-0.613-0.555-0.868 c-0.178-0.254-0.358-0.473-0.539-0.654c-0.182-0.18-0.369-0.321-0.567-0.416c-0.197-0.096-0.41-0.145-0.643-0.145h-1.006v6.356 h-3.74V8.693h5.926c4.029,0,6.043,1.506,6.043,4.515c0,0.578-0.088,1.114-0.266,1.604c-0.178,0.49-0.428,0.932-0.752,1.325 c-0.324,0.395-0.717,0.733-1.176,1.02c-0.459,0.285-0.969,0.508-1.534,0.67v0.047c0.248,0.076,0.486,0.203,0.719,0.375 c0.231,0.174,0.455,0.377,0.67,0.61c0.217,0.231,0.424,0.479,0.619,0.746c0.197,0.266,0.377,0.526,0.539,0.782L140,25.295z  M129.815,11.495v4.619h1.62c0.803,0,1.448-0.231,1.932-0.694c0.494-0.471,0.742-1.053,0.742-1.749 c0-1.45-0.87-2.177-2.605-2.177H129.815z"/>
			</g>
		</g>
		<g>
			<polygon class="st1" points="15.386,0.338 12.28,11.376 12.28,11.48 12.28,22.519 15.386,33.662 15.386,33.662 18.58,22.519 18.58,11.48 18.58,11.376 15.386,0.338"/>
			<g>
				<g>
					<polyline class="st2" points="15.386,0.338 0,5.88 2.186,26.372 15.386,33.662"/>
					<polyline class="st1" points="15.386,33.662 28.654,26.297 31.137,5.807 15.386,0.338"/>
				</g>
				<g>
					<path class="st3" d="M12.594,25.088c-1.514-0.473-2.864-1.317-3.94-2.431l-0.003-0.002c-0.131-0.137-0.257-0.274-0.381-0.418 c-0.838-0.979-1.478-2.13-1.857-3.396c0.251,0.233,0.518,0.447,0.796,0.647l0,0c0.003,0.008,0.008,0.016,0.011,0.027 c-0.003-0.012-0.008-0.02-0.011-0.027c0.398,0.279,0.822,0.526,1.269,0.737c0.141,0.064,0.282,0.125,0.427,0.186 c0.177,0.07,0.36,0.135,0.542,0.195c0.011,0.006,0.024,0.006,0.035,0.01c0.032,0.012,0.065,0.023,0.097,0.033 c0.074,0.756,0.649,1.372,1.39,1.504C11.256,23.31,11.802,24.299,12.594,25.088z"/>
					<path class="st3" d="M13.174,11.794c0,0.324,0.088,0.627,0.243,0.883c-1.25,1.753-2.108,3.656-2.479,5.539 c-0.041,0.209-0.077,0.416-0.105,0.619c-0.429,0.113-0.79,0.393-1.016,0.762c-0.013,0-0.024-0.004-0.035-0.01 c-0.023-0.006-0.04-0.014-0.061-0.021c-0.142-0.045-0.281-0.098-0.417-0.152c-0.204-0.08-0.403-0.174-0.598-0.272 c-0.663-0.338-1.26-0.772-1.781-1.291c-0.11-0.111-0.213-0.219-0.311-0.332L6.573,17.47c-0.038-0.045-0.078-0.092-0.115-0.137 c-0.017-0.021-0.032-0.039-0.047-0.059c-0.014-0.018-0.024-0.031-0.037-0.045c-0.005-0.01-0.013-0.016-0.017-0.023 c-0.02-0.022-0.037-0.047-0.053-0.068c-0.008-0.012-0.017-0.022-0.023-0.029c-0.001-0.004-0.002-0.004-0.004-0.008 c-0.013-0.014-0.024-0.033-0.037-0.049c-0.055-0.072-0.107-0.149-0.157-0.225c-0.009-0.012-0.019-0.024-0.025-0.039 c-0.006-0.006-0.015-0.018-0.02-0.027c-0.014-0.203-0.02-0.408-0.02-0.617c0-1.882,0.557-3.636,1.512-5.105 c0.113-0.176,0.235-0.348,0.361-0.514c0.12-0.16,0.245-0.319,0.374-0.467c1.126-1.317,2.61-2.315,4.299-2.847 c0.026,0.182,0.059,0.367,0.095,0.553c0.192,0.967,0.513,1.942,0.949,2.898C13.337,10.962,13.174,11.36,13.174,11.794z"/>
					<path class="st3" d="M12.176,20.479c0,0.221-0.079,0.424-0.212,0.58c-0.029,0.037-0.061,0.068-0.096,0.1 c-0.161,0.141-0.368,0.225-0.596,0.225c-0.173,0-0.335-0.049-0.472-0.135c-0.147-0.09-0.265-0.219-0.342-0.375 c-0.058-0.121-0.089-0.252-0.089-0.395c0-0.26,0.11-0.494,0.286-0.658c0.029-0.027,0.06-0.051,0.091-0.074 c0.148-0.107,0.331-0.17,0.526-0.17c0.206,0,0.395,0.068,0.546,0.186c0.085,0.063,0.155,0.139,0.213,0.229 C12.125,20.129,12.176,20.299,12.176,20.479z"/>
					<path class="st3" d="M15.777,11.794c0,0.147-0.032,0.281-0.094,0.403c-0.148,0.299-0.456,0.502-0.808,0.502 c-0.044,0-0.087-0.002-0.128-0.006c-0.008-0.004-0.016-0.004-0.025-0.006c-0.383-0.066-0.684-0.369-0.741-0.756 c-0.007-0.043-0.01-0.09-0.01-0.137c0-0.102,0.017-0.201,0.05-0.295c0.123-0.354,0.46-0.606,0.854-0.606h0.002 c0.012,0,0.024,0,0.036,0c0.392,0.018,0.72,0.285,0.827,0.645C15.765,11.62,15.777,11.706,15.777,11.794z"/>
					<path class="st4" d="M24.752,16.143c0,0.907-0.129,1.782-0.368,2.61c-0.799-0.211-1.606-0.52-2.4-0.914 c0.022-0.109,0.033-0.221,0.033-0.336c0-0.225-0.044-0.442-0.125-0.639c0.031-0.029,0.064-0.061,0.095-0.094 c0.957-0.977,1.763-2.055,2.404-3.212C24.625,14.379,24.752,15.248,24.752,16.143z"/>
					<path class="st4" d="M23.881,12.196c-0.063,0.139-0.131,0.277-0.201,0.416c-0.627,1.235-1.455,2.382-2.459,3.407 c-0.009,0.01-0.02,0.02-0.028,0.027c-0.255-0.156-0.557-0.244-0.879-0.244c-0.375,0-0.722,0.123-1.004,0.328 c-0.514-0.404-1.011-0.848-1.49-1.327c-0.608-0.604-1.157-1.247-1.647-1.909c0.252-0.297,0.405-0.68,0.405-1.102 c0-0.313-0.087-0.61-0.237-0.862c1.21-1.163,2.547-2.106,3.917-2.788C21.83,9.103,23.099,10.514,23.881,12.196z"/>
					<path class="st4" d="M21.217,17.503c0,0.379-0.23,0.701-0.556,0.836c-0.108,0.045-0.225,0.07-0.348,0.07 c-0.063,0-0.125-0.008-0.185-0.02c-0.385-0.082-0.681-0.408-0.715-0.805c0.011-0.01,0.021-0.016,0.028-0.022 c-0.01-0.008-0.021-0.014-0.03-0.023c-0.001-0.012-0.001-0.022-0.001-0.037c0-0.389,0.25-0.723,0.601-0.85 c0.095-0.033,0.196-0.053,0.302-0.053c0.09,0,0.179,0.014,0.262,0.039c0.346,0.105,0.606,0.412,0.64,0.785 C21.217,17.45,21.217,17.478,21.217,17.503z"/>
					<path class="st4" d="M21.452,18.767c-0.301,0.274-0.7,0.44-1.139,0.44c-0.351,0-0.677-0.107-0.949-0.289 c-0.039,0.025-0.078,0.051-0.115,0.072c-1.233,0.781-2.538,1.352-3.864,1.698v4.824c3.887,0,7.222-2.37,8.64-5.744 C23.166,19.531,22.302,19.195,21.452,18.767z"/>
					<path class="st3" d="M15.386,20.688c-0.793,0.205-1.591,0.33-2.385,0.367c-0.042,0.002-0.086,0.006-0.128,0.008 c-0.151,0.41-0.454,0.744-0.839,0.94c0.245,0.909,0.688,1.698,1.319,2.327c0.524,0.524,1.162,0.92,1.891,1.18 c0.046,0,0.093,0.002,0.142,0.002V20.688z"/>
					<path class="st4" d="M18.612,17.503c0-0.172,0.026-0.34,0.074-0.498c-0.562-0.44-1.106-0.92-1.625-1.442 c-0.614-0.614-1.172-1.262-1.675-1.934v5.946c1.124-0.324,2.235-0.823,3.291-1.489c0.009-0.006,0.02-0.014,0.03-0.022 C18.646,17.89,18.612,17.7,18.612,17.503z"/>
					<path class="st3" d="M15.386,13.629c-0.045-0.059-0.091-0.113-0.132-0.174c-0.123,0.029-0.249,0.043-0.378,0.043 c-0.227,0-0.441-0.045-0.637-0.123c-1.134,1.606-1.912,3.341-2.25,5.049c-0.032,0.162-0.059,0.32-0.083,0.475 c0.477,0.195,0.848,0.596,0.996,1.092c0.016-0.004,0.029-0.004,0.046-0.004c0.809-0.039,1.627-0.18,2.438-0.412V13.629z"/>
					<path class="st4" d="M15.386,6.778v3.394c0.048,0.016,0.098,0.033,0.145,0.055c1.106-1.073,2.316-1.979,3.573-2.681 C17.964,7.05,16.705,6.778,15.386,6.778z"/>
					<path class="st3" d="M15.386,6.778c-0.608,0-1.201,0.055-1.773,0.168c0.025,0.197,0.06,0.404,0.101,0.606 c0.168,0.86,0.449,1.725,0.829,2.575c0.106-0.02,0.219-0.033,0.333-0.033c0.178,0,0.347,0.027,0.51,0.078V6.778z"/>
				</g>
			</g>
		</g>
	</g>
</svg>
